icons/glyphs/glyph-calculator.svg

<?xml version="1.0" encoding="UTF-8" standalone="no"?><svg height="16" viewBox="0 0 4.2333332 4.2333332" width="16" xmlns="http://www.w3.org/2000/svg"><sodipodi:namedview/><metadata><rdf:RDF><cc:Work><dc:format>image/svg+xml</dc:format><dc:type/><dc:title/></cc:Work></rdf:RDF></metadata><path d="m1.4609375 0c-.80884015 0-1.4609375.65209739-1.4609375 1.4609375v4.3789063c0 .80884.65209735 1.4609375 1.4609375 1.4609374h4.3789063c.80884 0 1.4609375-.6520974 1.4609374-1.4609374v-4.3789063c0-.80884011-.6520974-1.4609375-1.4609374-1.4609375zm8.6992185 0c-.8088396 0-1.4609372.65209739-1.4609372 1.4609375v4.3789063c0 .8088397.6520976 1.4609375 1.4609372 1.4609374h4.378906c.808842 0 1.460938-.6520974 1.460938-1.4609374v-4.3789063c0-.80884011-.652096-1.4609375-1.460938-1.4609375zm-7.0019529 1.75h.984375v1.4082031h1.4082031v.984375h-1.4082031v1.4082031h-.984375v-1.4082031h-1.4082031v-.984375h1.4082031zm7.2910159 1.4082031h3.800781v.984375h-3.800781zm-8.9882815 5.5410157c-.80884015 0-1.4609375.6520976-1.4609375 1.4609372v4.378906c0 .808842.65209735 1.460938 1.4609375 1.460938h4.3789063c.80884 0 1.4609375-.652096 1.4609374-1.460938v-4.378906c0-.8088396-.6520974-1.4609372-1.4609374-1.4609372zm8.6992185 0c-.8088396 0-1.4609372.6520976-1.4609372 1.4609372v4.378906c0 .808842.6520976 1.460938 1.4609372 1.460938h4.378906c.808842 0 1.460938-.652096 1.460938-1.460938v-4.378906c0-.8088396-.652096-1.4609372-1.460938-1.4609372zm-7.5058591 1.9589842.9960937.996094.9960938-.996094.6953125.695313-.9960938.996093.9960938.996094-.6953125.695313-.9960938-.994141-.9960937.994141-.6953125-.695313.9941406-.996094-.9941406-.996093zm7.7949221.246094h3.802734v.986328h-3.802734zm0 1.90625h3.802734v.984375h-3.802734z" fill="#d0d0d0" stroke-linecap="round" stroke-miterlimit="26.700001" stroke-width="2" transform="scale(.26458333)"/></svg>

<?xml version="1.0" encoding="UTF-8" standalone="no"?>
<!-- Created with Inkscape (http://www.inkscape.org/) -->

<svg
   xmlns:dc="http://purl.org/dc/elements/1.1/"
   xmlns:cc="http://creativecommons.org/ns#"
   xmlns:rdf="http://www.w3.org/1999/02/22-rdf-syntax-ns#"
   xmlns:svg="http://www.w3.org/2000/svg"
   xmlns="http://www.w3.org/2000/svg"
   xmlns:sodipodi="http://sodipodi.sourceforge.net/DTD/sodipodi-0.dtd"
   xmlns:inkscape="http://www.inkscape.org/namespaces/inkscape"
   width="16"
   height="16"
   viewBox="0 0 4.2333332 4.2333332"
   version="1.1"
   id="svg8"
   inkscape:version="0.92+devel (b8837397f6, 2017-07-27, custom)"
   sodipodi:docname="glyph-calculator.svg">
  <defs
     id="defs2" />
  <sodipodi:namedview
     id="base"
     pagecolor="#002466"
     bordercolor="#ffffff"
     borderopacity="0.38039216"
     inkscape:pageopacity="1"
     inkscape:pageshadow="2"
     inkscape:zoom="18.208"
     inkscape:cx="4.6001369"
     inkscape:cy="11.911106"
     inkscape:document-units="px"
     inkscape:current-layer="svg8"
     inkscape:document-rotation="0"
     showgrid="false"
     inkscape:showpageshadow="false"
     borderlayer="true"
     inkscape:window-width="1920"
     inkscape:window-height="1051"
     inkscape:window-x="0"
     inkscape:window-y="0"
     inkscape:window-maximized="1"
     units="px" />
  <metadata
     id="metadata5">
    <rdf:RDF>
      <cc:Work
         rdf:about="">
        <dc:format>image/svg+xml</dc:format>
        <dc:type
           rdf:resource="http://purl.org/dc/dcmitype/StillImage" />
        <dc:title></dc:title>
      </cc:Work>
    </rdf:RDF>
  </metadata>
  <path
     style="font-variation-settings:normal;vector-effect:none;fill:#d0d0d0;stroke-width:2;stroke-linecap:round;stroke-miterlimit:26.70000076"
     d="M 1.4609375 0 C 0.65209735 -1.4802974e-16 1.4802974e-16 0.65209739 0 1.4609375 L 0 5.8398438 C -1.4802974e-16 6.6486838 0.65209735 7.3007813 1.4609375 7.3007812 L 5.8398438 7.3007812 C 6.6486838 7.3007812 7.3007813 6.6486838 7.3007812 5.8398438 L 7.3007812 1.4609375 C 7.3007812 0.65209739 6.6486838 1.4802974e-16 5.8398438 0 L 1.4609375 0 z M 10.160156 0 C 9.3513164 -1.4802974e-16 8.6992188 0.65209739 8.6992188 1.4609375 L 8.6992188 5.8398438 C 8.6992188 6.6486835 9.3513164 7.3007813 10.160156 7.3007812 L 14.539062 7.3007812 C 15.347904 7.3007812 16 6.6486838 16 5.8398438 L 16 1.4609375 C 16 0.65209739 15.347904 1.4802974e-16 14.539062 0 L 10.160156 0 z M 3.1582031 1.75 L 4.1425781 1.75 L 4.1425781 3.1582031 L 5.5507812 3.1582031 L 5.5507812 4.1425781 L 4.1425781 4.1425781 L 4.1425781 5.5507812 L 3.1582031 5.5507812 L 3.1582031 4.1425781 L 1.75 4.1425781 L 1.75 3.1582031 L 3.1582031 3.1582031 L 3.1582031 1.75 z M 10.449219 3.1582031 L 14.25 3.1582031 L 14.25 4.1425781 L 10.449219 4.1425781 L 10.449219 3.1582031 z M 1.4609375 8.6992188 C 0.65209735 8.6992188 1.4802974e-16 9.3513164 0 10.160156 L 0 14.539062 C -1.4802974e-16 15.347904 0.65209735 16 1.4609375 16 L 5.8398438 16 C 6.6486838 16 7.3007813 15.347904 7.3007812 14.539062 L 7.3007812 10.160156 C 7.3007812 9.3513164 6.6486838 8.6992188 5.8398438 8.6992188 L 1.4609375 8.6992188 z M 10.160156 8.6992188 C 9.3513164 8.6992188 8.6992188 9.3513164 8.6992188 10.160156 L 8.6992188 14.539062 C 8.6992188 15.347904 9.3513164 16 10.160156 16 L 14.539062 16 C 15.347904 16 16 15.347904 16 14.539062 L 16 10.160156 C 16 9.3513164 15.347904 8.6992188 14.539062 8.6992188 L 10.160156 8.6992188 z M 2.6542969 10.658203 L 3.6503906 11.654297 L 4.6464844 10.658203 L 5.3417969 11.353516 L 4.3457031 12.349609 L 5.3417969 13.345703 L 4.6464844 14.041016 L 3.6503906 13.046875 L 2.6542969 14.041016 L 1.9589844 13.345703 L 2.953125 12.349609 L 1.9589844 11.353516 L 2.6542969 10.658203 z M 10.449219 10.904297 L 14.251953 10.904297 L 14.251953 11.890625 L 10.449219 11.890625 L 10.449219 10.904297 z M 10.449219 12.810547 L 14.251953 12.810547 L 14.251953 13.794922 L 10.449219 13.794922 L 10.449219 12.810547 z "
     transform="scale(0.26458333)"
     id="path814"
     inkscape:label="#" />
</svg>
